third_party/noto/noto_2/emoji_u1f9f2.svg

<svg enable-background="new 0 0 128 128" version="1.1" viewBox="0 0 128 128" xmlns="http://www.w3.org/2000/svg"><path d="m67.76 93.24c-17.11 0-30.86-6.73-30.86-22.95s13.65-22.55 30.86-22.55h26.29v-30.77h-26.29c-30.02 0-55.17 15.08-61.54 40.54h-1.57v12.97c0 33.24 28.29 53.51 63.11 53.51h26.29v-30.75h-26.29z" fill="#C62828"/><rect x="94.05" y="93.24" width="29.3" height="30.76" fill="#82AEC0"/><rect x="94.05" y="16.97" width="29.3" height="30.76" fill="#82AEC0"/><path d="m67.76 80.26c-17.11 0-30.86-6.73-30.86-22.95s13.65-22.55 30.86-22.55h26.29v-30.76h-26.29c-34.82 0-63.11 20.28-63.11 53.51 0 33.24 28.29 53.51 63.11 53.51h26.29v-30.76h-26.29z" fill="#F44336"/><rect x="94.05" y="80.26" width="29.3" height="30.76" fill="#E0E0E0"/><rect x="94.05" y="4" width="29.3" height="30.76" fill="#E0E0E0"/></svg>

<?xml version="1.0" encoding="utf-8"?>
<!-- Generator: Adobe Illustrator 25.2.3, SVG Export Plug-In . SVG Version: 6.00 Build 0)  -->
<svg version="1.1" id="Layer_1_copy" xmlns="http://www.w3.org/2000/svg" xmlns:xlink="http://www.w3.org/1999/xlink" x="0px"
	 y="0px" viewBox="0 0 128 128" style="enable-background:new 0 0 128 128;" xml:space="preserve">
<g>
	<path style="fill:#C62828;" d="M67.76,93.24c-17.11,0-30.86-6.73-30.86-22.95c0-16.22,13.65-22.55,30.86-22.55h26.29V16.97H67.76
		c-30.02,0-55.17,15.08-61.54,40.54H4.65v12.97c0,33.24,28.29,53.51,63.11,53.51h26.29V93.24H67.76z"/>
	<rect x="94.05" y="93.24" style="fill:#82AEC0;" width="29.3" height="30.76"/>
	<rect x="94.05" y="16.97" style="fill:#82AEC0;" width="29.3" height="30.76"/>
	<path style="fill:#F44336;" d="M67.76,80.26c-17.11,0-30.86-6.73-30.86-22.95c0-16.22,13.65-22.55,30.86-22.55h26.29V4H67.76
		C32.94,4,4.65,24.28,4.65,57.51c0,33.24,28.29,53.51,63.11,53.51h26.29V80.26H67.76z"/>
	<rect x="94.05" y="80.26" style="fill:#E0E0E0;" width="29.3" height="30.76"/>
	<rect x="94.05" y="4" style="fill:#E0E0E0;" width="29.3" height="30.76"/>
</g>
</svg>
